X:1
T:Ascendit, 88.68.86
T:Ascendit, 88.68.86
T:John Stainer, 1875
T:Public Domain Courtesy of the Cyber Hymnal™
C:John Stainer, 1875
Z:Public Domain
Z:Courtesy of the Cyber Hymnal™
%%score ( 1 2 ) ( 3 4 )
L:1/8
Q:1/4=113
M:none
K:D
V:1 treble 
V:2 treble 
V:3 bass 
V:4 bass 
V:1
 [DA]2 | [Gc]2 [FB]2 [EA]2 [FB]2 | A3 z G [DF]2 E2 | [EF]2 [D^G]2 [CA]2 [DF]2 | %4
 [Ed]2 [Ec]2 [EB]2 [EA]2 | e3 z d c2 z x2 | [CA]6 [EA]2 | [^DB]3 [DF] [DF]2 [DG]2 | %8
 E2 [^DF]2 [EG]2 E2 | [CA]3 [CE] [CE]2 [CF]2 | D2 [CE]2 [DF]2 [DG]2 | [FA]2 [Bd]2 d2 z x3 | %12
 [Fd]6 |] %13
V:2
 x2 | x8 | E2 (E2 x E2) x2 | x8 | x8 | F2 (F2 E3) (B2 D) | x8 | x8 | E2 x2 E2 x2 | x8 | D2 x6 | %11
 x4 A3 (c2 G) | x6 |] %13
V:3
 [F,A,]2 | [E,A,]2 [D,B,]2 [C,E]2 [D,D]2 | [E,B,]2 [A,,C]2 [D,D]2 [C,A,]2 x | %3
 [D,A,]2 [B,,B,]2 [F,A,]2 [F,A,]2 | [^G,B,]2 A,2 [D,G,]2 [C,A,]2 | %5
 [D,A,]2 [B,,A,]2 [E,A,]2 [E,^G,]2 x2 | [A,,A,]6 [A,C]2 | [A,B,]3 [A,B,] [A,B,]2 [A,B,]2 | %8
 [G,B,]2 [F,A,]2 [E,G,]2 [G,B,]2 | [G,A,]3 [G,A,] [G,A,]2 [G,A,]2 | %10
 [F,A,]2 [E,G,]2 [D,A,]2 [B,D]2 | [A,D]2 [^G,E]2 [A,F]2 [A,,E]2 x2 | [D,D]6 |] %13
V:4
 x2 | x8 | x9 | x8 | x2 A,2 x4 | x10 | x8 | x8 | x8 | x8 | x8 | x10 | x6 |] %13

